X:1
T: Auf dem Z\"urisee (Walzer) BbEb
T:Hanny Christen. Bd.I  Z\"urich, Schaffhausen, St. Gallen I. S.208  (wz00415) orig. Bb,Eb-Dur
T: Z\"urcher Oberland, L\"andlermusig am Bachtel. S.40-274
M:3/4
L:1/4
K:Bb %%MIDI gchordon
F| "Bb"BFB | dBd | f>gf | zgf | "F7"e>fe | zfe | "Bb"d>bf | "F7"zFA | 
"Bb"BFB | dBd | f>gf | zgf | "F7"e>fe | zfa | "Bb"b>bb | bzz |: "Eb"geb | 
g3 | "Bb"fdb | f3 | "F7"fcd | edc |1 "Bb"dBg | f3 :|2 "Bb"B>bb | bzz || [K:Eb] 
|: "Eb"B3 | e3 | "Bb7"d3 | a3 | c3 | B2A | "Eb"G3 | E3 | B3 | 
e3 | "Bb7"d3 | a3 | c3 | B2d | "Eb"(e3 | e)zz :: "Ab"e>ee | zf/e/ d/c/ | 
"Eb"B>BB | zeg | "Bb7"a>dd | zcd |1 "Eb"e>BB | zGB :|2 "Eb"e>ee | ezz |] 
W:
W: Anmerkungen HC: <Einsiedler Walzer> Steinen 87, Spiez 13, Schafhuse/Emmental 2, Saanen 9 (Risener) 

